src/icons/solid/ai/ai-summary.svg

<svg width="24" height="24" viewBox="0 0 24 24" fill="none" xmlns="http://www.w3.org/2000/svg">
<g clip-path="url(#clip0_6362_1123)">
<path d="M21.1094 5.70215C22.1496 5.70237 23 6.52777 23 7.56152V21.2109C22.9998 22.1949 22.1794 22.9999 21.1592 23H8.10352C7.18318 23 6.42238 22.3441 6.28223 21.4893C6.28223 21.4695 6.28232 21.4495 6.27246 21.4297H7.84277L20.1484 21.3799C20.6785 21.3799 21.1091 20.9524 21.1094 20.4258V5.70215Z" fill="#3C3B44"/>
<path fill-rule="evenodd" clip-rule="evenodd" d="M18.0977 3.29688C19.148 3.29691 19.9979 4.12151 19.998 5.15527V18.8145C19.998 19.7887 19.1679 20.5947 18.1475 20.5947H5.0918C4.08136 20.5947 3.25098 19.7887 3.25098 18.8145V8.05859C3.48096 8.17781 3.741 8.23725 4.00098 8.2373C4.38115 8.2373 4.75162 8.10773 5.05176 7.86914C5.35181 7.62062 5.55205 7.28281 5.62207 6.91504C5.75214 6.27894 6.24219 5.7719 6.8623 5.64258C7.23247 5.57299 7.57337 5.36447 7.81348 5.07617C8.05351 4.77797 8.19334 4.40993 8.19336 4.03223C8.19336 3.77383 8.13291 3.52547 8.00293 3.29688H18.0977ZM7.30273 14.9082C6.8826 14.9082 6.55276 15.2261 6.55273 15.6436C6.55273 16.0412 6.88258 16.3789 7.30273 16.3789H11.6543C12.0645 16.3789 12.4053 16.0611 12.4053 15.6436C12.4052 15.226 12.0645 14.9082 11.6543 14.9082H7.30273ZM7.30273 11.7363C6.88258 11.7364 6.55273 12.0551 6.55273 12.4727C6.55291 12.89 6.88269 13.208 7.30273 13.208H16.0166C16.4167 13.208 16.7567 12.89 16.7568 12.4727C16.7568 12.075 16.4168 11.7363 16.0166 11.7363H7.30273ZM7.30273 8.56543C6.88267 8.56547 6.55288 8.8834 6.55273 9.30078C6.55273 9.71829 6.88258 10.0371 7.30273 10.0371H16.0166C16.4168 10.0371 16.7568 9.71832 16.7568 9.30078C16.7567 8.90325 16.4167 8.56543 16.0166 8.56543H7.30273Z" fill="#3C3B44"/>
<path d="M4.00098 1C4.11103 1 4.21172 1.03979 4.30176 1.10938C4.3817 1.17894 4.44192 1.26866 4.46191 1.37793C4.68206 2.49113 5.55182 3.36633 6.62207 3.5752C6.73212 3.59508 6.83255 3.65467 6.89258 3.74414C6.96251 3.82364 7.00293 3.92295 7.00293 4.03223C7.0029 4.14147 6.96251 4.24068 6.89258 4.33008C6.83255 4.40961 6.73212 4.46938 6.62207 4.48926C5.55177 4.69816 4.68199 5.57323 4.46191 6.68652C4.44191 6.79584 4.38176 6.8855 4.30176 6.95508C4.21172 7.02467 4.11103 7.06445 4.00098 7.06445C3.89111 7.06437 3.79109 7.02455 3.70117 6.95508C3.62115 6.8855 3.56104 6.79585 3.54102 6.68652C3.32092 5.5731 2.4506 4.69803 1.37012 4.48926C1.2701 4.46936 1.16962 4.40959 1.09961 4.33008C1.03975 4.24074 1.00003 4.14138 1 4.03223C1 3.92287 1.03958 3.82287 1.09961 3.7334C1.16961 3.65392 1.27013 3.5951 1.37012 3.5752C2.45054 3.36644 3.32086 2.49127 3.54102 1.37793C3.56102 1.26859 3.62115 1.17896 3.70117 1.10938C3.79111 1.03986 3.89107 1.00009 4.00098 1Z" fill="#3C3B44"/>
</g>
<defs>
<clipPath id="clip0_6362_1123">
<rect width="24" height="24" fill="white"/>
</clipPath>
</defs>
</svg>

<svg xmlns="http://www.w3.org/2000/svg" width="24" height="24" fill="none" viewBox="0 0 24 24"><g fill="currentColor" clip-path="url(#a)"><path d="M21.11 5.702c1.04 0 1.89.826 1.89 1.86V21.21c0 .984-.82 1.789-1.84 1.789H8.103c-.92 0-1.682-.656-1.822-1.51 0-.02 0-.04-.01-.06h1.57l12.306-.05c.53 0 .961-.428.961-.954z"/><path fill-rule="evenodd" d="M18.098 3.297c1.05 0 1.9.825 1.9 1.858v13.66c0 .974-.83 1.78-1.85 1.78H5.092c-1.01 0-1.841-.806-1.841-1.78V8.058c.23.119.49.178.75.178.38 0 .75-.13 1.05-.368.3-.248.501-.586.571-.954.13-.636.62-1.143 1.24-1.272a1.65 1.65 0 0 0 1.331-1.61c0-.26-.06-.508-.19-.736zM7.303 14.908c-.42 0-.75.318-.75.736 0 .397.33.735.75.735h4.351a.74.74 0 0 0 .751-.735.74.74 0 0 0-.75-.736zm0-3.172c-.42 0-.75.32-.75.737s.33.735.75.735h8.714c.4 0 .74-.318.74-.735a.75.75 0 0 0-.74-.737zm0-3.17c-.42 0-.75.317-.75.735 0 .417.33.736.75.736h8.714c.4 0 .74-.319.74-.736a.75.75 0 0 0-.74-.736z" clip-rule="evenodd"/><path d="M4.001 1c.11 0 .21.04.3.11.08.069.14.159.16.268.221 1.113 1.09 1.988 2.161 2.197.11.02.21.08.27.17.07.079.11.178.11.287a.475.475 0 0 1-.38.458c-1.07.208-1.94 1.083-2.16 2.197A.47.47 0 0 1 4 7.064a.47.47 0 0 1-.46-.378c-.22-1.113-1.09-1.988-2.17-2.197a.5.5 0 0 1-.271-.159.53.53 0 0 1-.1-.298c0-.11.04-.21.1-.299a.5.5 0 0 1 .27-.158c1.08-.209 1.95-1.084 2.171-2.197A.47.47 0 0 1 4.001 1"/></g><defs><clipPath id="a"><path fill="currentColor" d="M0 0h24v24H0z"/></clipPath></defs></svg>
